!!!COM:	Bach, Johann Sebastian
!!!CDT:	1685/02/21/-1750/07/28/
!!!OTL@@DE:	Kyrie! Gott Vater in Ewigkeit
!!!SCT:	BWV 371
!!!PC#:	132
!!!AGN:	chorale
**kern	**text	**kern	**text	**kern	**kern
*ICvox	*	*ICvox	*	*ICvox	*ICvox
*Ibass	*	*Itenor	*	*Ialto	*Isoprn
*I"Bass	*	*I"Tenor	*	*I"Alto	*I"Soprano
*clefF4	*	*clefGv2	*	*clefG2	*clefG2
*k[]	*	*k[]	*	*k[]	*k[]
*a:	*	*a:	*	*a:	*a:
*M4/4	*	*M4/4	*	*M4/4	*M4/4
*met(c)	*	*met(c)	*	*met(c)	*met(c)
*MM100	*	*MM100	*	*MM100	*MM100
=1-	=1-	=1-	=1-	=1-	=1-
4.E	e	4.B	|	8eL	2g
.	.	.	.	8fJ	.
.	.	.	.	[4g	.
8D	.	16cLL	.	.	.
.	.	16dJJ	.	.	.
4C	a	8eL	|	8gL]	2a
.	.	8AJ	.	16f#L	.
.	.	.	.	16eJJ	.
4D	D	4d	.	4f#	.
=2	=2	=2	=2	=2	=2
2GG;	G	2d;	|	2g;	2b;
4D	d	4d	|	4fnX	4a
8AAL	a	8cL	|	4e	4cc
8BBJ	.	8dJ	.	.	.
=3	=3	=3	=3	=3	=3
8CL	a	[2e	|	4a	4cc
8D	.	.	.	.	.
8E	.	.	.	[4g	4b
8DJ	.	.	.	.	.
8CL	a	8eL]	|	8gL]	4a
8AAJ	.	8cJ	.	16f#L	.
.	.	.	.	16eJJ	.
4D	D	8AL	|	4f#	4a
.	.	16dL	.	.	.
.	.	16cJJ	.	.	.
=4	=4	=4	=4	=4	=4
2GG;	G	2B;	|	2d;	2g;
8DL	d	8dL	|	8fnXL	4a
8EJ	.	16cL	.	8eJ	.
.	.	16B-JJ	.	.	.
[4F	d	4A	|	8dL	4a
.	.	.	.	8c#J	.
=5	=5	=5	=5	=5	=5
8FL]	Bb	4B-	|	8dL	4g
8E	.	.	.	8c#J	.
8F	d	8AL	|	[4d	4f
8B-J	Bb	8dJ	.	.	.
8GL	Eo7	8B-L	|	8dL]	4e
8EJ	.	8GJ	.	16c#L	.
.	.	.	.	16BJJ	.
8AL	A	8EL	|	4c#	4e
8AAJ	.	16AL	.	.	.
.	.	16GJJ	.	.	.
=6	=6	=6	=6	=6	=6
2D;	d	2F;	|	2A;	2d;
4.D	d(?5)	4F	|	4d	4d
.	A	8EL	.	4e	4a
8C#	.	[8AJ	.	.	.
=7	=7	=7	=7	=7	=7
8D	d	8AL]	|	16fLL	4a
.	.	.	.	16eJJ	.
4F	d	16dL	|	4d	.
.	.	16cnXJJ	.	.	.
.	G	8BL	.	.	4g
8E	.	16cL	.	16eLL	.
.	.	16BJJ	.	16dJJ	.
8F	F	8AL	|	8c	4a
4A	.	8cJ	|	4f	.
.	.	8dL	.	.	4b
8G#	.	16cL	.	[8e	.
.	.	16BJJ	.	.	.
=8	=8	=8	=8	=8	=8
8A	a	8AL	|	16eL]L	4cc
.	.	.	.	16f#JJ	.
4E	C	16GnXL	|	4g	.
.	.	16AJJ	.	.	.
.	e	8BL	.	.	4b
8D	.	16cL	.	[8g	.
.	.	16dJJ	.	.	.
8CL	a	8eL	|	8gL]	2a
8AAJ	.	8cJ	.	16f#L	.
.	.	.	.	16eJJ	.
4D	D	8AL	.	4f#	.
.	.	8dJ	.	.	.
=9	=9	=9	=9	=9	=9
2GG;	G	2B;	|	2d;	2g;
4C	C	4.c	|	4e	4g
8DL	.	.	.	4d	8fnXL
8EJ	.	8B-	.	.	8gJ
=10	=10	=10	=10	=10	=10
4F	F	8AL	|	8cL	4a
.	.	8BnXJ	.	8dJ	.
4C	C	8cL	|	4e	4g
.	.	8B-J	.	.	.
4C#	g	8A	|	4e	4g
.	.	4B-	.	.	.
4D	.	.	.	4d	4f
.	.	[8A	.	.	.
=11	=11	=11	=11	=11	=11
1E;	a	4A]	|	4c	1e;
.	E	8G#L	.	8BnXL	.
.	.	8F#J	.	8AJ	.
.	.	2G#;	.	2B;	.
=12||	=12||	=12||	=12||	=12||	=12||
!! Christe, aller Welt Trost	e	NA	|
8EL	.	4GnX	.	4B	2e
8DJ	a	.	.	.	.
2C	.	8AL	.	8cL	.
.	D7	8GJ	.	8BJ	.
.	.	4F#	.	4A	2d
8BBL	.	[4G	.	8BL	.
8AAJ	8cJ	.	.
=13	=13	=13	=13	=13	=13	e	|
4BB	G	8GL]	.	8eL	2g
.	C	8d	.	8fnX	.
2E	.	8c	.	8e	.
.	a	8BJ	.	8dJ	.
.	.	4.A	.	8cL	4a
.	.	.	.	16dL	.
.	d	.	.	16eJJ	.
4D	.	.	.	4f	4b
.	.	16GLL	.	.	.
.	.	16FnXJJ	.
=14	=14	=14	=14	=14	=14	C	|
4E	.	8GL	.	16eLL	4cc
.	C	.	|	16fJJ	.
.	.	16cL	.	4g	.
.	F	16B-JJ	.	.	.
4F	.	4A	.	.	4cc
.	C	.	|	[8f	.
2C;	.	2G;	.	8fL]	2cc;
.	.	.	.	16eL	.
.	.	.	.	16dJJ	.
.	4e;	.	.
=15	=15	=15	=15	=15	=15	Am7	|
4AA	.	4A	.	16eLL	4cc
.	.	.	.	16f#JJ	.
.	D	.	.	4g	.
4D	.	4A	.	.	4cc
.	G(?5)	.	|	[8f#	.
8GG	e	8BnXL	|	8f#L]	4b
4G	.	8GJ	.	16eL	.
.	A	.	.	16dJJ	.
.	.	8eL	.	16c#LL	4a
.	.	.	.	16BJ	.
[8FnX	.	16dL	.	8AJ	.
.	.	16cnXJJ	.
=16	=16	=16	=16	=16	=16	G	|
8FL]	C	8BL	|	8d	4g
8EJ	.	16cL	.	4cnX	.
.	F	16B-JJ	.	.	.
8FL	D	8AL	.	.	4a
8F#J	.	16dL	.	[8a	.
.	G	16cJJ	|	.	.
8GL	.	8BnXL	.	8aL]	4b
16BBL	.	[8dJ	.	8gJ	.
16CJJ	b	.	|	.	.
8DL	.	16dLL]	.	16f#LL	4b
.	.	16c	.	16eJ	.
8D#J	.	16B	.	8f#J	.
.	.	16AJJ	.
=17	=17	=17	=17	=17	=17	e	|
2E;	C	2G;	|	2e;	2b;
8EL	.	4G	.	4.c	4e
8CJ	G	.	.	.	.
8GL	.	4G	.	.	4d
8FnXJ	8B	.	.
=18	=18	=18	=18	=18	=18	C	|
4.E	.	4G	.	8cL	4g
.	.	.	.	16dL	.
.	.	.	.	16eJJ	.
.	.	8cL	.	16fLL	8aL
.	bo	.	.	16eJ	.
8D	C	8dJ	|	8fJ	8bJ
8CL	.	4G	.	4e	4cc
8BB	F	.	|	.	.
8AA	.	[4A	.	[4f	4cc
8BBJ	.	.	.
=19	=19	=19	=19	=19	=19	F	|
2C;	C	8AL]	.	8fL]	2cc;
.	.	16GL	.	16eL	.
.	.	16FJJ	.	16dJJ	.
.	a	4G;	|	4e;	.
8AAL	.	8cL	.	8eL	4cc
8BBJ	.	8dJ	.	16aL	.
.	a	.	|	16g#JJ	.
8CL	.	[4e	.	[4a	4cc
8DJ	.	.	.
=20	=20	=20	=20	=20	=20	NA	|
8EL	G	8eL]	|	8a]	4b
8BB	a	8dJ	.	4gnX	.
8C	D	8eL	.	.	4a
8DJ	.	16dL	.	8f#	.
.	G	16cJJ	|	.	.
4GG;	d	4B;	|	4d;	4g;
8DL	.	[4d	.	8fL	4a
8EJ	8gJ	.	.
=21	=21	=21	=21	=21	=21	d	|
8FL	.	8dL]	.	8aL	4a
8AAJ	.	8c#	.	16gL	.
.	G	.	|	16fJJ	.
8BBL	A	8d	.	8fL	4g
8C#XJ	d	8AJ	|	[8eJ	.
8DL	.	4A	|	8e]	4f
8FF	A	.	.	4d	.
8GG	.	8B-L	.	.	4e
8AAJ	.	16AL	.	8c#	.
.	.	16GJJ	.
=22	=22	=22	=22	=22	=22	d	|
2DD;	.	2F;	|	2A;	2d;
8DL	.	8FL	.	4A	4d
8EJ	d	8GJ	|	.	.
8FL	.	8AL	.	16dLL	4a
.	.	.	.	16eJ	.
8DJ	8fJ	8dJ	.
=23	=23	=23	=23	=23	=23	Bb^7	|
8BB-L	C^7	8dL	.	4.f	4a
8BBJ	.	8BJ	.	.	.
[4C	.	8GL	.	.	4g
.	.	16cL	.	[8e	.
.	Am7	16BJJ	|	.	.
8CL]	.	4.A	.	16eLL	4a
.	.	.	.	16d	.
8C#	.	.	.	16e	.
.	D	.	.	16gJJ	.
8D	.	.	.	16fLL	4b
.	.	.	.	16e	.
8D#J	.	16GLL	.	16f#LL	.
.	16aJJJJ	16F#JJ	.
=24	=24	=24	=24	=24	=24	C	|
8EL	D	8EL	.	8gL	4cc
8F#	G	8A	|	8dnX	.
8G	e	8B	.	8d	4b
8EJ	a	[8eJ	|	[8gJ	.
8CL	.	8eL]	.	8gL]	2a
8AAJ	.	8cnXJ	.	16f#L	.
.	D	.	.	16eJJ	.
4D	.	8AL	.	4f#	.
.	.	16dL	.	.	.
.	.	16cJJ	.
=25	=25	=25	=25	=25	=25	G	|
2GG;	C	2B;	|	2d;	2g;
8CL	.	4.c	.	4e	4g
8BB-XJ	.	.	.	.	.
8AAL	.	.	.	8fnXL	8fnXL
8GGJ	8eJ	8B-X	8gJ
=26	=26	=26	=26	=26	=26	F	|
8FFL	.	16cLL	.	[4f	4a
.	.	16B-J	.	.	.
8AAJ	g	8cJ	|	.	.
8BB-XL	.	8dL	.	8fL]	4g
8BBJ	.	8GJ	.	16eL	.
.	C	.	|	16dJJ	.
8CL	.	8cL	.	4.e	4g
8C#J	.	8B-J	.	.	.
[4D	.	8AL	.	.	4f
.	.	16BL	.	16dLL	.
.	16cJJ	16AJJ	.
=27	=27	=27	=27	=27	=27	E7	|
8DL]	.	4G#	.	8BL	1e;
16CnXL	.	.	.	8dJ	.
16BBJJ	a	.	.	.	.
8CL	.	2A	.	2c	.
8DJ	.	.	.	.	.
2E;	E	.	.	.	.
.	4B;	4G#X;	.
=28||	=28||	=28||	=28||	=28||	=28||	e	|
!! Kyrie, Gott heil'ger Geist	.	NA	.
4EE	C	2e	.	2g	2b
2E	.	.	.	.	.
.	.	2e	.	2g	2cc
8DL	.	.	.
8CJ	G	.	|	.	.
=29	=29	=29	=29	=29	=29
2G;	.	2B;	|	2g;	2dd;
4r	.	4ry	.	4ry	4r	.	.
8GGL	4g	4d	4b
8AAJ	G	.	|	.	.
=30	=30	=30	=30	=30	=30	C	.
4BB	D	4d	|	4.g	4dd
8EEL	G	8eL	.	.	4cc
8FF#J	.	8dJ	|	4a	.
8GGL	a	4d	.	.	4b
8BBJ	D	.	.	4g	.
8CL	.	8eL	.	.	4a
8DJ	8f#	16dL	.
.	G	16cJJ	|	.	.
=31	=31	=31	=31	=31	=31	e	|
2GG;	.	2B;	.	2d;	2g;
8EEL	a	4e	|	4g	4b
8E	.	.	.	.	.
8D	[4a	4e	4cc
8CJ	B(m7)	.	|	.	.
=32	=32	=32	=32	=32	=32	G	|
8BB	.	4d	.	8aL]	4dd
4B	.	.	.	16gL	.
.	.	.	.	16f#JJ	.
.	G	8dL	|	4g	8bL
8A	b	8cJ	.	.	8ccJ
8GL	.	4.B	.	4.g	4dd
8F#J	.	.	.	.	.
[4E	.	.	4cc
.	C(^7)	[8A	|	8f#	.
=33	=33	=33	=33	=33	=33	.	.
8EL]	G	8A]	|	16BLL	4b
.	.	.	.	16cJ	.
8BB	.	4G	.	8dJ	.
8C	.	.	.	8eL	4a
8DJ	G(?5)	8F#	|	16dL	.
.	d	.	|	16cJJ	.
4GG;	.	4G;	.	4B;	4g;
8DL	4d	8FL	4a
8EJ	d	8GJ	|	.	.
=34	=34	=34	=34	=34	=34	c	|
8FL	.	8A	.	8dL	4a
8F#J	.	4c	.	8e-	.
[4G	G	.	|	8d	4g
.	.	[8B-	.	8c#J	.
8GL]	A	8B-L]	.	4.d	4f
8G#J	.	8BJ	.	.	.
8AL	.	8EL	.	.	4e
8AAJ	8c#	16AL	.
.	D	16GJJ	|	.	.
=35	=35	=35	=35	=35	=35	G	|
2D;	.	2F#;	.	2A;	2d;
8GG	A	4B	.	4d	4d
4G	.	.	.	.	.
.	.	4c#	.	4e	4a
16F#XLL	.	.	.
16EJJ	D	.	|	.	.
=36	=36	=36	=36	=36	=36	b	|
8F#L	C	4.d	.	8A	4a
8BJ	.	.	.	4f#	.
[4E	.	.	.	.	4g
.	F#o7	16cnXLL	|	8e	.
.	.	16BJJ	.	.	.
8EL]	.	8cL	.	4.f#	4a
16D#L	B	[8F#J	.	.	.
16C#JJ	.	.	.	.	.
8D#L	.	8F#L]	.	.	4b
8BBJ	16eLL	16GL	.
.	C	16AJJ	|	16d#JJ	.
=37	=37	=37	=37	=37	=37	D	|
8EL	G	8G	.	8e	4cc
8F#	e	4A	|	4dnX	.
8G	a	.	.	.	4b
8EJ	.	8G	.	4g	.
8CL	f#o	16eLL	|	.	2a
.	a	16dnXJJ	.	.	.
8AAJ	D	4c	.	16f#LL	.
.	.	.	.	16eJJ	.
4D	.	.	.	4f#	.
.	.	16BLL	.
.	G	16AJJ	|	.	.
=38	=38	=38	=38	=38	=38	.	|
2GG;	C#oo7	2B;	.	2d;	2g;
8GL	d	8BL	|	8dL	4g
8C#J	.	8B-J	.	8e	.
[4D	8d	8AL	8fnXL
.	d	8GJ	|	8eJ	8gJ
=39	=39	=39	=39	=39	=39	.	.
8DL]	G	4.F	.	8fL	4a
8CnX	.	.	.	8e	.
8BBnX	.	.	.	8d	4g
8BB-J	A	16ELL	|	8gJ	.
.	.	16DJJ	.	.	.
4.AA	.	8EL	.	8c#L	4g
.	d	16FL	.	8AJ	.
.	.	16GJJ	.	.	.
.	4d	8AL	4f
8GG#	E	[8BJ	|	.	.
=40	=40	=40	=40	=40	=40	.	.
8AAL	.	8BL]	.	4c#	1e;
8BBnX	.	16AL	.	.	.
.	.	16G#JJ	.	.	.
8CnX	.	[4A	.	4c	.
8DJ	.	.	.	.	.
2E;	.	8AL]	.	2B;	.
.	.	16G#L	.	.	.
.	.	16F#JJ	.
.	.	4G#;	.
==	==	==	==	==	==
*-	*-	*-	*-	*-	*-
!!!hum2abc: -Q ''
!!!title: @{PC#}. @{OTL@@DE}
!!!YOR1: 371 vierstimmige Choralges&auml;nge von Johann Sebastian Bach, 
!!!YOR2: 4th ed. by Alfred D&ouml;rffel (Leipzig: Breitkopf und H&auml;rtel, 
!!!YOR2: c.1875). 178 pp. Plate "V.A.10".  reprint: J.S. Bach, 371 Four-Part 
!!!YOR4: Chorales (New York: Associated Music Publishers, Inc., c.1940).
!!!SMS: B&H, 4th ed, Alfred D&ouml;rffel, c.1875, plate V.A.10
!!!EED:  Craig Stuart Sapp
!!!EEV:  2009/05/22
